X: 1
T: Polska efter P\aal-Karl
O: \"Alvdalen
R: \"Alvdalspolska
Z: 2000 Brian Wilson 
M: 3/4
L: 1/8
K: Am
V: 1 brace=2
|: A^c d>e ^fg \
| ab ag e>^f \
| (3:2:4g2 ~g2 eg ^f(e/d/) \
| (^f{gf}e)  (e<^c) A2- \
| A^c d>e ^fg |
| ab ag e>^f \
| (3:2:4g2 ~g2 eg ^fe/d/ \
| (^fe) (e^c) A>B \
| (3:2:4=c2 c2 Ac BA \
| (GB) A4 :|
|: (3Acd e2 e>B \
| (3:2:4cd e2 d2 e>B \
| cd e2 e>B \
| (3:2:4cd e2 d2 e>B \
| (3:2:2c2 c2 Ac B>A \
| (GB) A4 :|
V: 2
|: EA ^F>A de \
| ^fg fe ^c>d \
| (3:2:4e2 ~e2 ^ce d(c/B/) \
| (d^c)  (c<A) E2- \
| EA ^F>A de |
| ^fg fe ^c>d \
| (3:2:4e2 ~e2 ^ce dc/B/ \
| (d^c) (cA) E2- \
| (3:2:4E2 E2 ^FE DD \
| {D}E2 E4 :|
|: (3EAB c2 c>B \
| (3:2:4AB c2 B2 c>B \
| AB c2 c>B \
| (3:2:4AB c2 A2 E2 \
| (3:2:2E2 E2 FE D>D \
| E2 E4 :|
%%sep 1 1 10cm
